X:4388
L:1/8
M:2/2
K:C
 e | c2 (GF) EFGE | cG c/d/e (.d.D)De | c G2 F EFGE | (e/f/g) (dg) ecc :| e/f/ | g>agf{g} e2 dc | 
 fage fdd(g | eg)ag{f} e2 (dc) | ec e/f/g ecc e/f/ | g>agf{f} e2 dc | fage fddg | egag egdg | 
 ec (e/f/g) (.e.c)c ||

